X:478
T:Lord Airlie
R:Reel
B:The Athole Collection
M:C|
L:1/8
K:F
f|cFAF EGGf|cFAF cFAF|BdAc GABd|cFAF CFF:|
|:c|~fcfa dg~g>a|gcfa cfAF|BdAc GABd|cFAF CFF:|

